pictures/funnel_white.svg

<?xml version="1.0" encoding="UTF-8" standalone="no"?>
<svg
   xmlns:dc="http://purl.org/dc/elements/1.1/"
   xmlns:cc="http://creativecommons.org/ns#"
   xmlns:rdf="http://www.w3.org/1999/02/22-rdf-syntax-ns#"
   xmlns:svg="http://www.w3.org/2000/svg"
   xmlns="http://www.w3.org/2000/svg"
   xmlns:sodipodi="http://sodipodi.sourceforge.net/DTD/sodipodi-0.dtd"
   xmlns:inkscape="http://www.inkscape.org/namespaces/inkscape"
   version="1"
   width="700.25897"
   height="516.39697"
   id="svg46"
   sodipodi:docname="funnel_white.svg"
   inkscape:version="0.92.3 (2405546, 2018-03-11)">
  <metadata
     id="metadata52">
    <rdf:RDF>
      <cc:Work
         rdf:about="">
        <dc:format>image/svg+xml</dc:format>
        <dc:type
           rdf:resource="http://purl.org/dc/dcmitype/StillImage" />
        <dc:title />
      </cc:Work>
    </rdf:RDF>
  </metadata>
  <defs
     id="defs50" />
  <sodipodi:namedview
     pagecolor="#ffffff"
     bordercolor="#666666"
     borderopacity="1"
     objecttolerance="10"
     gridtolerance="10"
     guidetolerance="10"
     inkscape:pageopacity="0"
     inkscape:pageshadow="2"
     inkscape:window-width="3082"
     inkscape:window-height="1745"
     id="namedview48"
     showgrid="false"
     inkscape:zoom="1.828051"
     inkscape:cx="264.7153"
     inkscape:cy="287.02018"
     inkscape:window-x="118"
     inkscape:window-y="55"
     inkscape:window-maximized="1"
     inkscape:current-layer="svg46" />
  <path
     d="M 207,59.000227 H 670 L 699,2.0002269 H 178"
     id="path2"
     inkscape:connector-curvature="0"
     style="fill:#ff99cb" />
  <path
     d="M 238,118.00023 H 640 L 670,59.000227 H 207"
     id="path4"
     inkscape:connector-curvature="0"
     style="fill:#ffcb99" />
  <path
     d="m 270,181.00023 h 338 l 32,-63 H 238"
     id="path6"
     inkscape:connector-curvature="0"
     style="fill:#feff99" />
  <path
     d="m 303,245.00023 h 273 l 32,-64 H 270"
     id="path8"
     inkscape:connector-curvature="0"
     style="fill:#cefecc" />
  <path
     d="m 337,311.00023 h 205 l 34,-66 H 303"
     id="path10"
     inkscape:connector-curvature="0"
     style="fill:#ccffff" />
  <path
     d="m 373,382.00023 h 133 l 36,-71 H 337"
     id="path12"
     inkscape:connector-curvature="0"
     style="fill:#ca9bfb" />
  <path
     d="m 440,512.00023 66,-130 H 373"
     id="path14"
     inkscape:connector-curvature="0"
     style="fill:#ffffff" />
  <path
     d="M 440,512.00023 178,2.0002269 h 521 z m -440,-130 h 506 m -506,-71 h 542 m -542,-66 h 576 m -576,-64 h 608 m -608,-63 H 640 M 0,59.000227 H 670 M 0,2.0002269 h 178"
     id="path16"
     inkscape:connector-curvature="0"
     style="fill:none;stroke:#808080;stroke-width:4"
     sodipodi:nodetypes="cccccccccccccccccc" />
  <text
     style="font-weight:400;font-size:12.5px;line-height:125%;font-family:Ubuntu;-inkscape-font-specification:Ubuntu;letter-spacing:0;word-spacing:0;fill:#ff0000;fill-opacity:1"
     x="-0.54500002"
     y="356.91025"
     font-weight="400"
     font-size="12.5"
     letter-spacing="0"
     word-spacing="0"
     id="text20">
    <tspan
       x="-0.54500002"
       y="356.91025"
       font-size="30"
       id="tspan18"
       style="font-size:30px;fill:#ff0000;fill-opacity:1"><tspan
   style="fill:#ffffff;fill-opacity:1"
   id="tspan915">181496</tspan>

 (-518)</tspan>
  </text>
  <text
     y="160.88498"
     x="-0.54500002"
     style="font-weight:400;font-size:12.5px;line-height:125%;font-family:Ubuntu;-inkscape-font-specification:Ubuntu;letter-spacing:0;word-spacing:0;fill:#ff0000;fill-opacity:1"
     font-weight="400"
     font-size="12.5"
     letter-spacing="0"
     word-spacing="0"
     id="text28">
    <tspan
       y="160.88498"
       x="-0.54500002"
       font-size="30"
       id="tspan26"
       style="font-size:30px;fill:#ff0000;fill-opacity:1"><tspan
   style="fill:#ffffff;fill-opacity:1"
   id="tspan867">184196</tspan>

 (-3156)</tspan>
  </text>
  <text
     style="font-weight:400;font-size:12.5px;line-height:125%;font-family:Ubuntu;-inkscape-font-specification:Ubuntu;letter-spacing:0;word-spacing:0;fill:#ff0000;fill-opacity:1"
     x="-0.54500002"
     y="288.41022"
     font-weight="400"
     font-size="12.5"
     letter-spacing="0"
     word-spacing="0"
     id="text32">
    <tspan
       x="-0.54500002"
       y="288.41022"
       font-size="30"
       id="tspan30"
       style="font-size:30px;fill:#ff0000;fill-opacity:1"><tspan
   style="fill:#ffffff;fill-opacity:1"
   id="tspan899">182014</tspan>

 (-1751)</tspan>
  </text>
  <text
     style="font-weight:400;font-size:12.5px;line-height:125%;font-family:Ubuntu;-inkscape-font-specification:Ubuntu;letter-spacing:0;word-spacing:0;fill:#ff0000;fill-opacity:1"
     x="-1.415"
     y="223.44023"
     font-weight="400"
     font-size="12.5"
     letter-spacing="0"
     word-spacing="0"
     id="text36">
    <tspan
       x="-1.415"
       y="223.44023"
       font-size="30"
       id="tspan34"
       style="font-size:30px;fill:#ff0000;fill-opacity:1"><tspan
   style="fill:#ffffff;fill-opacity:1"
   id="tspan883">183765</tspan>

 (-431)</tspan>
  </text>
  <text
     style="font-weight:400;font-size:12.5px;line-height:125%;font-family:Ubuntu;-inkscape-font-specification:Ubuntu;letter-spacing:0;word-spacing:0;fill:#ff0000;fill-opacity:1"
     x="-1.415"
     y="98.910225"
     font-weight="400"
     font-size="12.5"
     letter-spacing="0"
     word-spacing="0"
     id="text40">
    <tspan
       x="-1.415"
       y="98.910225"
       font-size="30"
       id="tspan38"
       style="font-size:30px;fill:#ff0000;fill-opacity:1"><tspan
   style="fill:#ffffff;fill-opacity:1"
   id="tspan851">187352</tspan>

 (-2699)</tspan>
  </text>
  <text
     y="45.913967"
     x="-0.30500001"
     style="font-weight:400;font-size:12.5px;line-height:125%;font-family:Ubuntu;-inkscape-font-specification:Ubuntu;letter-spacing:0;word-spacing:0;fill:#ffffff;fill-opacity:1;"
     font-weight="400"
     font-size="12.5"
     letter-spacing="0"
     word-spacing="0"
     id="text44">
    <tspan
       y="41.914974"
       x="-0.30500001"
       font-size="30"
       id="tspan42"
       style="font-size:30px;fill:#ffffff;fill-opacity:1;">190051</tspan>
  </text>
  <text
     y="38.750225"
     x="239.86145"
     style="font-weight:400;font-size:12.5px;line-height:125%;font-family:Ubuntu;-inkscape-font-specification:Ubuntu;letter-spacing:0;word-spacing:0;fill:#000000;fill-opacity:1"
     font-weight="400"
     font-size="12.5"
     letter-spacing="0"
     word-spacing="0"
     id="text24-3">
    <tspan
       y="38.750225"
       x="239.86145"
       font-size="30"
       id="tspan22-6"
       style="font-size:30px;fill:#000000;fill-opacity:1">GHTorrent, 01.01.2018, ≥50🟊</tspan>
  </text>
  <text
     y="97.365227"
     x="360.7843"
     style="font-weight:400;font-size:12.5px;line-height:125%;font-family:Ubuntu;-inkscape-font-specification:Ubuntu;letter-spacing:0;word-spacing:0;fill:#000000;fill-opacity:1"
     font-weight="400"
     font-size="12.5"
     letter-spacing="0"
     word-spacing="0"
     id="text24-3-7">
    <tspan
       y="97.365227"
       x="360.7843"
       font-size="30"
       id="tspan22-6-5"
       style="font-size:30px;fill:#000000;fill-opacity:1">- duplicates</tspan>
  </text>
  <text
     y="160.94524"
     x="371.59024"
     style="font-weight:400;font-size:12.5px;line-height:125%;font-family:Ubuntu;-inkscape-font-specification:Ubuntu;letter-spacing:0;word-spacing:0;fill:#000000;fill-opacity:1"
     font-weight="400"
     font-size="12.5"
     letter-spacing="0"
     word-spacing="0"
     id="text24-3-3">
    <tspan
       y="160.94524"
       x="371.59024"
       font-size="30"
       id="tspan22-6-56"
       style="font-size:30px;fill:#000000;fill-opacity:1">- removed</tspan>
  </text>
  <text
     y="221.86523"
     x="364.09024"
     style="font-weight:400;font-size:12.5px;line-height:125%;font-family:Ubuntu;-inkscape-font-specification:Ubuntu;letter-spacing:0;word-spacing:0;fill:#000000;fill-opacity:1"
     font-weight="400"
     font-size="12.5"
     letter-spacing="0"
     word-spacing="0"
     id="text24-3-2">
    <tspan
       y="221.86523"
       x="364.09024"
       font-size="30"
       id="tspan22-6-9"
       style="font-size:30px;fill:#000000;fill-opacity:1">- corrupted</tspan>
  </text>
  <text
     y="286.82022"
     x="398.93274"
     style="font-weight:400;font-size:12.5px;line-height:125%;font-family:Ubuntu;-inkscape-font-specification:Ubuntu;letter-spacing:0;word-spacing:0;fill:#000000;fill-opacity:1"
     font-weight="400"
     font-size="12.5"
     letter-spacing="0"
     word-spacing="0"
     id="text24-3-1">
    <tspan
       y="286.82022"
       x="398.93274"
       font-size="30"
       id="tspan22-6-2"
       style="font-size:30px;fill:#000000;fill-opacity:1">- bugs</tspan>
  </text>
  <text
     y="357.96024"
     x="385.49414"
     style="font-weight:400;font-size:12.5px;line-height:125%;font-family:Ubuntu;-inkscape-font-specification:Ubuntu;letter-spacing:0;word-spacing:0;fill:#000000;fill-opacity:1"
     font-weight="400"
     font-size="12.5"
     letter-spacing="0"
     word-spacing="0"
     id="text24-3-70">
    <tspan
       y="357.96024"
       x="385.49414"
       font-size="30"
       id="tspan22-6-93"
       style="font-size:30px;fill:#000000;fill-opacity:1">indexed</tspan>
  </text>
</svg>

<svg xmlns="http://www.w3.org/2000/svg" version="1" width="700.259" height="516.397"><path d="M207 59h463l29-57H178" fill="#ff99cb"/><path d="M238 118h402l30-59H207" fill="#ffcb99"/><path d="M270 181h338l32-63H238" fill="#feff99"/><path d="M303 245h273l32-64H270" fill="#cefecc"/><path d="M337 311h205l34-66H303" fill="#cff"/><path d="M373 382h133l36-71H337" fill="#ca9bfb"/><path d="M440 512l66-130H373" fill="#fff"/><path d="M440 512L178 2h521zM0 382h506M0 311h542M0 245h576M0 181h608M0 118h640M0 59h670M0 2h178" fill="none" stroke="gray" stroke-width="4"/><text style="line-height:125%;-inkscape-font-specification:Ubuntu" x="-.545" y="356.91" font-weight="400" font-size="12.5" letter-spacing="0" word-spacing="0" font-family="Ubuntu" fill="red"><tspan x="-.545" y="356.91" font-size="30"><tspan fill="#fff">181496</tspan> (-518)</tspan></text><text y="160.885" x="-.545" style="line-height:125%;-inkscape-font-specification:Ubuntu" font-weight="400" font-size="12.5" letter-spacing="0" word-spacing="0" font-family="Ubuntu" fill="red"><tspan y="160.885" x="-.545" font-size="30"><tspan fill="#fff">184196</tspan> (-3156)</tspan></text><text style="line-height:125%;-inkscape-font-specification:Ubuntu" x="-.545" y="288.41" font-weight="400" font-size="12.5" letter-spacing="0" word-spacing="0" font-family="Ubuntu" fill="red"><tspan x="-.545" y="288.41" font-size="30"><tspan fill="#fff">182014</tspan> (-1751)</tspan></text><text style="line-height:125%;-inkscape-font-specification:Ubuntu" x="-1.415" y="223.44" font-weight="400" font-size="12.5" letter-spacing="0" word-spacing="0" font-family="Ubuntu" fill="red"><tspan x="-1.415" y="223.44" font-size="30"><tspan fill="#fff">183765</tspan> (-431)</tspan></text><text style="line-height:125%;-inkscape-font-specification:Ubuntu" x="-1.415" y="98.91" font-weight="400" font-size="12.5" letter-spacing="0" word-spacing="0" font-family="Ubuntu" fill="red"><tspan x="-1.415" y="98.91" font-size="30"><tspan fill="#fff">187352</tspan> (-2699)</tspan></text><text y="45.914" x="-.305" style="line-height:125%;-inkscape-font-specification:Ubuntu" font-weight="400" font-size="12.5" letter-spacing="0" word-spacing="0" font-family="Ubuntu" fill="#fff"><tspan y="41.915" x="-.305" font-size="30">190051</tspan></text><text y="38.75" x="239.861" style="line-height:125%;-inkscape-font-specification:Ubuntu" font-weight="400" font-size="12.5" letter-spacing="0" word-spacing="0" font-family="Ubuntu"><tspan y="38.75" x="239.861" font-size="30">GHTorrent, 01.01.2018, ≥50🟊</tspan></text><text y="97.365" x="360.784" style="line-height:125%;-inkscape-font-specification:Ubuntu" font-weight="400" font-size="12.5" letter-spacing="0" word-spacing="0" font-family="Ubuntu"><tspan y="97.365" x="360.784" font-size="30">- duplicates</tspan></text><text y="160.945" x="371.59" style="line-height:125%;-inkscape-font-specification:Ubuntu" font-weight="400" font-size="12.5" letter-spacing="0" word-spacing="0" font-family="Ubuntu"><tspan y="160.945" x="371.59" font-size="30">- removed</tspan></text><text y="221.865" x="364.09" style="line-height:125%;-inkscape-font-specification:Ubuntu" font-weight="400" font-size="12.5" letter-spacing="0" word-spacing="0" font-family="Ubuntu"><tspan y="221.865" x="364.09" font-size="30">- corrupted</tspan></text><text y="286.82" x="398.933" style="line-height:125%;-inkscape-font-specification:Ubuntu" font-weight="400" font-size="12.5" letter-spacing="0" word-spacing="0" font-family="Ubuntu"><tspan y="286.82" x="398.933" font-size="30">- bugs</tspan></text><text y="357.96" x="385.494" style="line-height:125%;-inkscape-font-specification:Ubuntu" font-weight="400" font-size="12.5" letter-spacing="0" word-spacing="0" font-family="Ubuntu"><tspan y="357.96" x="385.494" font-size="30">indexed</tspan></text></svg>
